X: 5
T: The Yellow Wattle
R: jig
M: 6/8
L: 1/8
K: Dmix
|:dcA AGE|ABA ABc|dcA ABc|dcA GED|
dcA AGE|ABA AGE|DED cde|dcA GED:|
|:DED c3|ded ccd|DED cde|dcA GED|
DED c3|ded d2B|ABA ABc|dcA GED:|


Tune 1237	Setting 1237

